gama.ui.shared/icons_svg/dark/gaml/_pair.svg

<svg height="18" viewBox="-850.497 -2806.737 24 18" width="24" xmlns="http://www.w3.org/2000/svg"><path d="m-840.9381-2797.7988h-6.0589c-.2177 0-.3889-.1712-.3889-.3889 0-.2178.1712-.3889.3889-.3889h6.0589l-1.6722-1.6722c-.1556-.1555-.1556-.3967 0-.5522.1556-.1556.3967-.1556.5522 0l2.3334 2.3333c.1555.1557.1555.3967 0 .5522l-2.3334 2.3335c-.1555.1554-.3966.1554-.5522 0-.1556-.1557-.1556-.3968 0-.5523l1.6722-1.6723zm-3.3366-5.0555c0 .2177-.1712.3888-.3889.3888-.2178 0-.3889-.1711-.3889-.3888 0-1.0734.8711-1.9445 1.9444-1.9445h6.2222c1.0734 0 1.9445.8711 1.9445 1.9445v10.1111c0 1.0732-.8711 1.9444-1.9445 1.9444h-6.2222c-1.0733 0-1.9444-.8712-1.9444-1.9444 0-.2178.1711-.3888.3889-.3888.2177 0 .3889.171.3889.3888 0 .6455.5211 1.1666 1.1666 1.1666h6.2222c.6456 0 1.1667-.5211 1.1667-1.1666v-10.1111c0-.6457-.5211-1.1667-1.1667-1.1667h-6.2222c-.6455 0-1.1666.521-1.1666 1.1667zm-1.9445 11.2777c.2178 0 .3889.1711.3889.3889 0 .2177-.1711.3889-.3889.3889h-2.3333c-1.0734 0-1.9445-.8712-1.9445-1.9444v-10.1111c0-1.0734.8711-1.9445 1.9445-1.9445h2.3333c.2178 0 .3889.1711.3889.3888 0 .218-.1711.389-.3889.389h-2.3333c-.6456 0-1.1667.521-1.1667 1.1667v10.1111c0 .6455.5211 1.1666 1.1667 1.1666z" fill="#999"/></svg>

<?xml version="1.0" encoding="UTF-8" standalone="no"?>
<!DOCTYPE svg PUBLIC "-//W3C//DTD SVG 1.1//EN" "http://www.w3.org/Graphics/SVG/1.1/DTD/svg11.dtd">
<svg xmlns:dc="http://purl.org/dc/elements/1.1/" xmlns:xl="http://www.w3.org/1999/xlink" version="1.1" xmlns="http://www.w3.org/2000/svg" viewBox="-850.497 -2806.737 24 18" width="24" height="18">
  <defs/>
  <g id="SOURCES" stroke-dasharray="none" stroke="none" stroke-opacity="1" fill="none" fill-opacity="1">
    <title>SOURCES</title>
    <g id="SOURCES_New">
      <title>New</title>
      <g id="Group_10464">
        <g id="Graphic_10318"/>
        <g id="Group_10319">
          <title>duplicate-alt</title>
          <g id="Graphic_10320">
            <path d="M -840.9381 -2797.7988 L -846.997 -2797.7988 C -847.2147 -2797.7988 -847.3859 -2797.97 -847.3859 -2798.1877 C -847.3859 -2798.4055 -847.2147 -2798.5766 -846.997 -2798.5766 L -840.9381 -2798.5766 L -842.6103 -2800.2488 C -842.7659 -2800.4043 -842.7659 -2800.6455 -842.6103 -2800.801 C -842.4547 -2800.9566 -842.2136 -2800.9566 -842.0581 -2800.801 L -839.7247 -2798.4677 C -839.5692 -2798.312 -839.5692 -2798.071 -839.7247 -2797.9155 L -842.0581 -2795.582 C -842.2136 -2795.4266 -842.4547 -2795.4266 -842.6103 -2795.582 C -842.7659 -2795.7377 -842.7659 -2795.9788 -842.6103 -2796.1343 L -840.9381 -2797.8066 Z M -844.2747 -2802.8543 C -844.2747 -2802.6366 -844.4459 -2802.4655 -844.6636 -2802.4655 C -844.8814 -2802.4655 -845.0525 -2802.6366 -845.0525 -2802.8543 C -845.0525 -2803.9277 -844.1814 -2804.7988 -843.1081 -2804.7988 L -836.8859 -2804.7988 C -835.8125 -2804.7988 -834.9414 -2803.9277 -834.9414 -2802.8543 L -834.9414 -2792.7432 C -834.9414 -2791.67 -835.8125 -2790.7988 -836.8859 -2790.7988 L -843.1081 -2790.7988 C -844.1814 -2790.7988 -845.0525 -2791.67 -845.0525 -2792.7432 C -845.0525 -2792.961 -844.8814 -2793.132 -844.6636 -2793.132 C -844.4459 -2793.132 -844.2747 -2792.961 -844.2747 -2792.7432 C -844.2747 -2792.0977 -843.7536 -2791.5766 -843.1081 -2791.5766 L -836.8859 -2791.5766 C -836.2403 -2791.5766 -835.7192 -2792.0977 -835.7192 -2792.7432 L -835.7192 -2802.8543 C -835.7192 -2803.5 -836.2403 -2804.021 -836.8859 -2804.021 L -843.1081 -2804.021 C -843.7536 -2804.021 -844.2747 -2803.5 -844.2747 -2802.8543 Z M -846.2192 -2791.5766 C -846.0014 -2791.5766 -845.8303 -2791.4055 -845.8303 -2791.1877 C -845.8303 -2790.97 -846.0014 -2790.7988 -846.2192 -2790.7988 L -848.5525 -2790.7988 C -849.6259 -2790.7988 -850.497 -2791.67 -850.497 -2792.7432 L -850.497 -2802.8543 C -850.497 -2803.9277 -849.6259 -2804.7988 -848.5525 -2804.7988 L -846.2192 -2804.7988 C -846.0014 -2804.7988 -845.8303 -2804.6277 -845.8303 -2804.41 C -845.8303 -2804.192 -846.0014 -2804.021 -846.2192 -2804.021 L -848.5525 -2804.021 C -849.1981 -2804.021 -849.7192 -2803.5 -849.7192 -2802.8543 L -849.7192 -2792.7432 C -849.7192 -2792.0977 -849.1981 -2791.5766 -848.5525 -2791.5766 Z" fill="#999"/>
          </g>
        </g>
      </g>
    </g>
  </g>
</svg>
